Catalina-dark/actions/22/amarok_cart_remove.svg

<svg xmlns="http://www.w3.org/2000/svg" viewBox="0 0 22 22">
  <defs id="defs3051">
    <style type="text/css" id="current-color-scheme">
      .ColorScheme-NegativeText {
        color:#da4453;
      }
      </style>
  </defs>
 <path 
     style="fill:currentColor;fill-opacity:1;stroke:none"      
	 class="ColorScheme-NegativeText"
        d="M 1.71875 3 C 1.3342373 3 1.125 3.1797956 1.125 3.5390625 L 1.125 4.5039062 C 1.125 4.8515213 1.333668 4.9414063 1.7324219 4.9414062 L 4.8632812 4.9414062 L 7.2597656 15.115234 C 6.8791369 15.51852 6.671875 16.107963 6.671875 16.65625 C 6.671875 17.862869 7.6320416 18.974609 8.859375 18.974609 C 10.018092 18.974609 10.886226 17.887562 11.027344 17.240234 L 15.695312 17.240234 C 15.83643 17.887562 16.540143 19 17.863281 19 C 19.069253 19 20.050781 17.954677 20.050781 16.75 C 20.050781 15.551796 19.32113 14.490234 17.875 14.490234 C 17.273633 14.490234 16.559947 14.813332 16.228516 15.298828 L 10.494141 15.298828 C 10.077909 14.6515 9.5103739 14.450391 8.9355469 14.427734 L 8.8554688 14.003906 L 17.580078 14.003906 C 18.237763 14.003906 18.367856 13.764456 18.484375 13.447266 L 20.820312 6.4589844 C 20.937479 6.1230213 20.848416 5.9204589 20.753906 5.7871094 C 20.511806 5.4459677 20.014421 5.4433594 19.917969 5.4433594 L 6.7207031 5.4414062 L 6.3691406 3.7695312 C 6.2739834 3.3753087 5.992193 3 5.4257812 3 L 1.71875 3 z "
     />
</svg>

<svg viewBox="0 0 22 22" xmlns="http://www.w3.org/2000/svg">
<defs>
<style id="current-color-scheme" type="text/css">.ColorScheme-NegativeText {
        color:#da4453;
      }</style>
</defs>
<path class="ColorScheme-NegativeText" d="m1.7188 3c-0.38451 0-0.59375 0.1798-0.59375 0.53906v0.96484c0 0.34762 0.20867 0.4375 0.60742 0.4375h3.1309l2.3965 10.174c-0.38063 0.40329-0.58789 0.99273-0.58789 1.541 0 1.2066 0.96017 2.3184 2.1875 2.3184 1.1587 0 2.0269-1.087 2.168-1.7344h4.668c0.14112 0.64733 0.84483 1.7598 2.168 1.7598 1.206 0 2.1875-1.0453 2.1875-2.25 0-1.1982-0.72965-2.2598-2.1758-2.2598-0.60137 0-1.3151 0.3231-1.6465 0.80859h-5.7344c-0.41623-0.64733-0.98377-0.84844-1.5586-0.87109l-0.080078-0.42383h8.7246c0.65768 0 0.78778-0.23945 0.9043-0.55664l2.3359-6.9883c0.11717-0.33596 0.028104-0.53853-0.066406-0.67188-0.2421-0.34114-0.73948-0.34375-0.83594-0.34375l-13.197-0.0019532-0.35156-1.6719c-0.095157-0.39422-0.37695-0.76953-0.94336-0.76953h-3.707z" fill="currentColor"/>
</svg>
